X:41
M:6/8
L:1/8
K:E_
g2g gfe|f2f fed|c2d (c/d/e)c|BGG G2:|
g2g gfe|f2f fed|c2d (c/d/e)c|BGG G2 G/F/|
EGE DFD|Ccc c2d|ege dbB|dff f2 E/F/|

